Source Code/mun/assets/flags/ROU.svg

<svg viewBox="0 0 40.5 40.5" xmlns="http://www.w3.org/2000/svg"><path d="m13.5 1.16v38.18a20.23 20.23 0 0 1 -13.5-18.56v-1a20.22 20.22 0 0 1 13.5-18.62z" fill="#002b7f"/><path d="m27 1.16v38.18a20.22 20.22 0 0 1 -13.5 0v-38.18a20.22 20.22 0 0 1 13.5 0z" fill="#fcd116"/><path d="m40.5 19.74v1a20.23 20.23 0 0 1 -13.5 18.6v-38.18a20.22 20.22 0 0 1 13.5 18.58z" fill="#ce1126"/></svg>

<svg xmlns="http://www.w3.org/2000/svg" viewBox="0 0 40.5 40.5"><defs><style>.cls-1{fill:#002b7f;}.cls-2{fill:#fcd116;}.cls-3{fill:#ce1126;}</style></defs><g id="Ebene_2" data-name="Ebene 2"><g id="Ńëîé_1" data-name="Ńëîé 1"><path class="cls-1" d="M13.5,1.16V39.34A20.23,20.23,0,0,1,0,20.78v-1A20.22,20.22,0,0,1,13.5,1.16Z"/><path class="cls-2" d="M27,1.16V39.34a20.22,20.22,0,0,1-13.5,0V1.16a20.22,20.22,0,0,1,13.5,0Z"/><path class="cls-3" d="M40.5,19.74v1A20.23,20.23,0,0,1,27,39.34V1.16A20.22,20.22,0,0,1,40.5,19.74Z"/></g></g></svg>
